_posts/2019-09-01-alex-hillman/feature.svg

<svg width="640" height="400" fill="none" xmlns="http://www.w3.org/2000/svg"><path d="M260 162.5c0 20.699-17.001 37.5-38 37.5s-38-16.801-38-37.5c0-20.698 17.001-37.5 38-37.5s38 16.802 38 37.5zM184.5 112c12.426 0 22.5-9.85 22.5-22 0-12.1503-10.074-22-22.5-22S162 77.8497 162 90c0 12.15 10.074 22 22.5 22z" fill="#FEFFD2" stroke="#1F1D1B" stroke-width="3"/><path d="M382.362 169.183c2.001-.566 4.143.208 5.309 1.918l11.783 17.272.003.005 11.724 17.311c1.161 1.714 1.081 3.974-.197 5.604l-12.913 16.457-.003.004-12.968 16.415c-1.284 1.625-3.475 2.248-5.431 1.545l-19.763-7.101-.005-.001-19.739-7.167c-1.954-.709-3.228-2.585-3.159-4.649l.698-20.846v-.005l.769-20.843c.076-2.064 1.479-3.846 3.479-4.419l20.194-5.783.005-.001 20.214-5.716zM303.742 163.873c1.835-.968 4.085-.657 5.578.772l7.494 7.168.004.004 7.47 7.194c1.488 1.433 1.88 3.657.971 5.513l-4.563 9.318-.002.005-4.594 9.303c-.915 1.854-2.923 2.917-4.977 2.636l-10.315-1.41-.005-.001-10.31-1.444c-2.053-.288-3.686-1.854-4.047-3.884l-1.812-10.19-.001-.005-1.777-10.196c-.354-2.031.644-4.062 2.476-5.036l9.195-4.887.004-.003 9.211-4.857z" fill="#DBD2FF" stroke="#1F1D1B" stroke-width="3"/><path d="M387.019 105.475c-1.416-3.892.591-8.196 4.483-9.6127l49.023-17.8429c3.892-1.4166 8.196.5903 9.613 4.4826l17.843 49.023c1.416 3.892-.59 8.196-4.483 9.613l-49.023 17.843c-3.892 1.416-8.196-.591-9.613-4.483l-17.843-49.023z" fill="#D2F4FF" stroke="#1F1D1B" stroke-width="3"/><rect x="440" y="167" width="58" height="58" rx="7.5" fill="#D2F4FF" stroke="#1F1D1B" stroke-width="3"/><path d="M367.844 21.0477c1.417-3.8923 5.721-5.8992 9.613-4.4825l30.989 11.2791c3.893 1.4167 5.899 5.7205 4.483 9.6128L401.65 68.4462c-1.417 3.8924-5.721 5.8993-9.613 4.4826l-30.989-11.2791c-3.893-1.4167-5.9-5.7205-4.483-9.6129l11.279-30.9891z" fill="#D2F4FF" stroke="#1F1D1B" stroke-width="3"/><path d="M333.894 77.1918c5.528-4.6119 14.043-1.5517 15.308 5.5014l10.648 59.4028c1.261 7.037-5.643 12.773-12.437 10.332l-57.211-20.561c-6.793-2.441-8.387-11.232-2.872-15.833l46.564-38.8422zM284.774 49.5781c3.973-3.3205 10.091-1.1172 11 3.9611l5.118 28.6104c.906 5.0663-4.055 9.1966-8.936 7.4384l-27.5-9.9028c-4.881-1.7575-6.026-8.0869-2.063-11.3995l22.381-18.7076z" fill="#D2FFD4" stroke="#1F1D1B" stroke-width="3"/></svg>

<svg width="640" height="400" viewBox="0 0 640 400" fill="none" xmlns="http://www.w3.org/2000/svg">
<path d="M260 162.5C260 183.199 242.999 200 222 200C201.001 200 184 183.199 184 162.5C184 141.802 201.001 125 222 125C242.999 125 260 141.802 260 162.5Z" fill="#FEFFD2" stroke="#1F1D1B" stroke-width="3"/>
<path d="M184.5 112C196.926 112 207 102.15 207 90C207 77.8497 196.926 68 184.5 68C172.074 68 162 77.8497 162 90C162 102.15 172.074 112 184.5 112Z" fill="#FEFFD2" stroke="#1F1D1B" stroke-width="3"/>
<path d="M382.362 169.183C384.363 168.617 386.505 169.391 387.671 171.101L399.454 188.373L399.457 188.378L411.181 205.689C412.342 207.403 412.262 209.663 410.984 211.293L398.071 227.75L398.068 227.754L385.1 244.169C383.816 245.794 381.625 246.417 379.669 245.714L359.906 238.613L359.901 238.612L340.162 231.445C338.208 230.736 336.934 228.86 337.003 226.796L337.701 205.95L337.701 205.945L338.47 185.102C338.546 183.038 339.949 181.256 341.949 180.683L362.143 174.9L362.148 174.899L382.362 169.183Z" fill="#DBD2FF" stroke="#1F1D1B" stroke-width="3"/>
<path d="M303.742 163.873C305.577 162.905 307.827 163.216 309.32 164.645L316.814 171.813L316.818 171.817L324.288 179.011C325.776 180.444 326.168 182.668 325.259 184.524L320.696 193.842L320.694 193.847L316.1 203.15C315.185 205.004 313.177 206.067 311.123 205.786L300.808 204.376L300.803 204.375L290.493 202.931C288.44 202.643 286.807 201.077 286.446 199.047L284.634 188.857L284.633 188.852L282.856 178.656C282.502 176.625 283.5 174.594 285.332 173.62L294.527 168.733L294.531 168.73L303.742 163.873Z" fill="#DBD2FF" stroke="#1F1D1B" stroke-width="3"/>
<path d="M387.019 105.475C385.603 101.583 387.61 97.279 391.502 95.8623L440.525 78.0194C444.417 76.6028 448.721 78.6097 450.138 82.502L467.981 131.525C469.397 135.417 467.391 139.721 463.498 141.138L414.475 158.981C410.583 160.397 406.279 158.39 404.862 154.498L387.019 105.475Z" fill="#D2F4FF" stroke="#1F1D1B" stroke-width="3"/>
<rect x="440" y="167" width="58" height="58" rx="7.5" fill="#D2F4FF" stroke="#1F1D1B" stroke-width="3"/>
<path d="M367.844 21.0477C369.261 17.1554 373.565 15.1485 377.457 16.5652L408.446 27.8443C412.339 29.261 414.345 33.5648 412.929 37.4571L401.65 68.4462C400.233 72.3386 395.929 74.3455 392.037 72.9288L361.048 61.6497C357.155 60.233 355.148 55.9292 356.565 52.0368L367.844 21.0477Z" fill="#D2F4FF" stroke="#1F1D1B" stroke-width="3"/>
<path d="M333.894 77.1918C339.422 72.5799 347.937 75.6401 349.202 82.6932L359.85 142.096C361.111 149.133 354.207 154.869 347.413 152.428L290.202 131.867C283.409 129.426 281.815 120.635 287.33 116.034L333.894 77.1918Z" fill="#D2FFD4" stroke="#1F1D1B" stroke-width="3"/>
<path d="M284.774 49.5781C288.747 46.2576 294.865 48.4609 295.774 53.5392L300.892 82.1496C301.798 87.2159 296.837 91.3462 291.956 89.588L264.456 79.6852C259.575 77.9277 258.43 71.5983 262.393 68.2857L284.774 49.5781Z" fill="#D2FFD4" stroke="#1F1D1B" stroke-width="3"/>
</svg>
